X:1
T:Sigurd Slembe
T:Sigurd Slembe
T:Kor af Korsfarere
T:Johan Halvorsen
C:Johan Halvorsen
%%score [ 1 2 3 4 ]
L:1/8
Q:1/4=70
M:4/4
K:Ab
V:1 treble-8 nm="T1"
V:2 treble-8 nm="T2"
V:3 bass nm="Baryton"
V:4 bass nm="Bass"
V:1
!p! A4 A2 A2 | (B2 G2) A4 |!mf! c2 c2 c2 c2 | (d2 B2) c4 |!<(! e4!<)! (a2 f2) |!>(! e4 d2 c2!>)! | %6
w: Dei- lig er|Jor- * den,|dei- lig er Guds|Him- * mel,|dei- lig _|Sjæ- le- nes|
 d4 c4 | B6 z2 |!mf! e4 f2 e2 | (e2 c2) d4 | d4 e2 d2 | (d2 B2) c2 c2 | c2!<(! c2 e2 d2!<)! | %13
w: Pil- grims-|gang.|Gjen- nem de|fa- * gre|Ri- ger paa|Jor- * den gaa|vi til Pa- ra-|
 c4!>(! B4!>)! | !fermata!A4 z4 |] %15
w: dis med|Sang.|
V:2
!p! A4 A2 A2 | (B2 G2) A4 |!mf! c2 c2 c2 c2 | (B2 G2) A4 |!<(! (c2 d2)!<)! (e2 d2) | %5
w: Dei- lig er|Jor- * den,|dei- lig er Guds|Him- * mel,|dei- * lig _|
!>(! B4 B2 A2!>)! | (A2 G2) A4 | G6 z2 |!mf! c4 c2 c2 | B4 B4 | B4 A2 B2 | E4 A2 c2 | %12
w: Sjæ- le- nes|Pil- * grims-|gang.|Gjen- nem de|fa- gre|Ri- ger paa|Jor- den gaa|
 c2!<(! c2 A2 B2!<)! | A4!>(! B4!>)! | !fermata!A4 z4 |] %15
w: vi til Pa- ra-|dis med|Sang.|
V:3
!p! E,4 D,2 C,2 | (F,2 E,2) C,4 |!mf! A,2 B,2 A,2 G,2 | (F,2 E,2) E,4 |!<(! (A,2 G,2)!<)! A,4 | %5
w: Dei- lig er|Jor- * den,|dei- lig er Guds|Him- * mel,|dei- * lig|
!>(! G,4 G,2 F,2!>)! | (F,2 E,2) (E,2 F,2) | G,6 z2 |!mf! (G,2 _G,2) F,2 F,2 | F,4 (B,2 A,2) | %10
w: Sjæ- le- nes|Pil- * grims- *|gang.|Gjen- * nem de|fa- gre _|
 (A,2 G,2) F,2 G,2 | A,4 A,2 A,2 | A,2!<(! (G,F,) E,2 F,2!<)! | (E,2 A,4) G,2 | !fermata!A,4 z4 |] %15
w: Ri- * ger paa|Jor- den gaa|vi til _ Pa- ra-|dis _ med|Sang.|
V:4
!p! C,4 B,,2 A,,2 | (D,2 E,2) A,,4 |!mf! A,2 G,2 F,2 E,2 | ((D,2 E,2)) A,,4 | %4
w: Dei- lig er|Jor- * den,|dei- lig er Guds|Him- * mel,|
!<(! (A,,2 B,,2)!<)! (C,2 D,2) |!>(! E,4 =E,2 F,2!>)! | B,,4 (C,2 =D,2) | E,6 z2 | %8
w: dei- * lig _|Sjæ- le- nes|Pil- grims- *|gang.|
!mf! (C,2 B,,2) =A,,2 A,,2 | B,,4 B,,4 | E,4 E,2 E,2 | A,,4 A,2 (A,G,) | %12
w: Gjen- * nem de|fa- gre|Ri- ger paa|Jor- den gaa _|
 F,2!<(! (E,D,) C,2 D,2!<)! | E,4!>(! E,4!>)! | !fermata!A,,4 z4 |] %15
w: vi til _ Pa- ra-|dis med|Sang.|

